X:9
T: The Humours Of Tullycrine
R: hornpipe
M: 4/4
L: 1/8
K: Ador
  ed | "Am"cAAB cBcd | eaag e2dB|"C"c2(3ABc "G"BAGA | Bdde dBAG |
       "Am"EAAB cBcd | eaag e2dB | "C" c2(3ABc "G"dBGA |"G/D"BAAG "Am"A2             :|
|:cd | "Am"eaab aged | eaab aged | "Em" egga ged2      |"C/G"(3efg "D"(3fga "Em"gedB  |
       "Am"AGAB cBcd | eaag e2dB | "C" c2(3ABc "G"dBGB |"G/D"BAAG "Am"A2             :|

